svg/cisco.svg

<?xml version="1.0" encoding="UTF-8"?>
<svg xmlns="http://www.w3.org/2000/svg" xmlns:xlink="http://www.w3.org/1999/xlink" width="62.118" height="32" viewBox="0 0 62.118 32">
<path fill-rule="nonzero" fill="rgb(0%, 58.823529%, 83.921569%)" fill-opacity="1" d="M 17.125 21.054688 L 19.800781 21.054688 L 19.800781 31.496094 L 17.125 31.496094 Z M 41.019531 24.0625 C 40.9375 23.976562 40.101562 23.476562 38.765625 23.476562 C 37.09375 23.476562 35.839844 24.644531 35.839844 26.234375 C 35.839844 27.820312 37.011719 28.988281 38.765625 28.988281 C 40.015625 28.988281 40.851562 28.488281 41.019531 28.40625 L 41.019531 31.246094 C 40.6875 31.328125 39.765625 31.578125 38.597656 31.578125 C 35.589844 31.578125 33 29.574219 33 26.148438 C 33 23.058594 35.339844 20.71875 38.597656 20.71875 C 39.851562 20.71875 40.769531 21.054688 41.019531 21.054688 Z M 13.449219 24.0625 C 13.367188 23.976562 12.53125 23.476562 11.195312 23.476562 C 9.523438 23.476562 8.269531 24.644531 8.269531 26.234375 C 8.269531 27.820312 9.441406 28.988281 11.195312 28.988281 C 12.449219 28.988281 13.285156 28.488281 13.449219 28.40625 L 13.449219 31.246094 C 13.117188 31.328125 12.199219 31.578125 11.027344 31.578125 C 8.105469 31.578125 5.429688 29.574219 5.429688 26.148438 C 5.429688 23.058594 7.769531 20.71875 11.027344 20.71875 C 12.28125 20.71875 13.199219 21.054688 13.449219 21.054688 Z M 54.804688 26.316406 C 54.804688 29.324219 52.464844 31.746094 49.289062 31.746094 C 46.117188 31.746094 43.777344 29.324219 43.777344 26.316406 C 43.777344 23.308594 46.117188 20.886719 49.289062 20.886719 C 52.550781 20.886719 54.804688 23.308594 54.804688 26.316406 M 49.289062 23.558594 C 47.703125 23.558594 46.535156 24.8125 46.535156 26.316406 C 46.535156 27.820312 47.703125 29.074219 49.289062 29.074219 C 50.878906 29.074219 52.046875 27.820312 52.046875 26.316406 C 52.046875 24.8125 50.878906 23.558594 49.289062 23.558594 M 29.742188 23.476562 C 29.742188 23.476562 28.570312 23.140625 27.652344 23.140625 C 26.566406 23.140625 25.980469 23.476562 25.980469 23.976562 C 25.980469 24.644531 26.734375 24.8125 27.152344 24.980469 L 27.902344 25.230469 C 29.574219 25.816406 30.410156 26.984375 30.410156 28.238281 C 30.410156 30.828125 28.070312 31.746094 26.066406 31.746094 C 24.644531 31.746094 23.308594 31.496094 23.226562 31.496094 L 23.226562 29.074219 C 23.476562 29.15625 24.5625 29.492188 25.730469 29.492188 C 27.066406 29.492188 27.652344 29.074219 27.652344 28.488281 C 27.652344 27.988281 27.152344 27.652344 26.484375 27.484375 C 26.316406 27.402344 26.066406 27.320312 25.898438 27.320312 C 24.394531 26.816406 23.226562 25.980469 23.226562 24.226562 C 23.226562 22.304688 24.730469 20.96875 27.152344 20.96875 C 28.40625 20.96875 29.65625 21.304688 29.742188 21.304688 Z M 2.671875 9.859375 C 2.679688 9.503906 2.539062 9.160156 2.289062 8.90625 C 2.035156 8.65625 1.691406 8.515625 1.335938 8.523438 C 0.980469 8.515625 0.636719 8.652344 0.386719 8.90625 C 0.136719 9.160156 -0.00390625 9.503906 0 9.859375 L 0 12.613281 C -0.00390625 12.96875 0.136719 13.3125 0.386719 13.566406 C 0.636719 13.816406 0.980469 13.957031 1.335938 13.953125 C 1.691406 13.957031 2.035156 13.816406 2.285156 13.566406 C 2.539062 13.3125 2.679688 12.972656 2.671875 12.613281 Z M 9.859375 6.265625 C 9.867188 5.910156 9.726562 5.566406 9.472656 5.316406 C 9.222656 5.0625 8.878906 4.921875 8.523438 4.929688 C 7.769531 4.929688 7.269531 5.515625 7.269531 6.265625 L 7.269531 12.613281 C 7.265625 12.96875 7.402344 13.3125 7.652344 13.566406 C 7.90625 13.816406 8.25 13.957031 8.605469 13.953125 C 8.960938 13.957031 9.304688 13.816406 9.554688 13.5625 C 9.804688 13.3125 9.945312 12.96875 9.941406 12.613281 L 9.941406 6.265625 Z M 17.125 1.335938 C 17.128906 0.980469 16.988281 0.636719 16.738281 0.386719 C 16.484375 0.136719 16.144531 -0.00390625 15.789062 0 C 15.433594 -0.00390625 15.09375 0.136719 14.839844 0.386719 C 14.589844 0.640625 14.449219 0.980469 14.453125 1.335938 L 14.453125 15.207031 C 14.449219 15.5625 14.589844 15.902344 14.839844 16.15625 C 15.09375 16.40625 15.433594 16.546875 15.789062 16.542969 C 16.144531 16.546875 16.488281 16.40625 16.738281 16.15625 C 16.988281 15.902344 17.128906 15.5625 17.125 15.207031 Z M 24.3125 6.265625 C 24.316406 5.910156 24.175781 5.566406 23.925781 5.316406 C 23.675781 5.0625 23.332031 4.921875 22.976562 4.929688 C 22.621094 4.929688 22.277344 5.066406 22.023438 5.316406 C 21.773438 5.566406 21.632812 5.910156 21.636719 6.265625 L 21.636719 12.613281 C 21.632812 12.96875 21.773438 13.3125 22.023438 13.566406 C 22.550781 14.082031 23.398438 14.082031 23.925781 13.566406 C 24.175781 13.3125 24.316406 12.972656 24.3125 12.613281 Z M 31.496094 9.859375 C 31.5 9.503906 31.359375 9.160156 31.109375 8.90625 C 30.859375 8.65625 30.515625 8.515625 30.160156 8.523438 C 29.804688 8.515625 29.460938 8.65625 29.207031 8.90625 C 28.957031 9.160156 28.816406 9.503906 28.824219 9.859375 L 28.824219 12.613281 C 28.820312 12.96875 28.960938 13.3125 29.210938 13.5625 C 29.460938 13.816406 29.804688 13.957031 30.160156 13.953125 C 30.515625 13.957031 30.859375 13.816406 31.113281 13.566406 C 31.363281 13.3125 31.503906 12.96875 31.496094 12.613281 Z M 38.679688 6.265625 C 38.679688 5.527344 38.082031 4.929688 37.34375 4.929688 C 36.605469 4.929688 36.007812 5.527344 36.007812 6.265625 L 36.007812 12.617188 C 36.007812 13.355469 36.605469 13.953125 37.34375 13.953125 C 38.082031 13.953125 38.679688 13.355469 38.679688 12.617188 Z M 45.867188 1.335938 C 45.820312 0.632812 45.234375 0.0859375 44.527344 0.0859375 C 43.824219 0.0859375 43.238281 0.632812 43.191406 1.335938 L 43.191406 15.207031 C 43.21875 15.925781 43.808594 16.492188 44.527344 16.492188 C 45.25 16.492188 45.839844 15.925781 45.867188 15.207031 Z M 53.050781 6.265625 C 53.050781 5.527344 52.453125 4.929688 51.714844 4.929688 C 50.976562 4.929688 50.378906 5.527344 50.378906 6.265625 L 50.378906 12.617188 C 50.378906 13.355469 50.976562 13.953125 51.714844 13.953125 C 52.453125 13.953125 53.050781 13.355469 53.050781 12.617188 Z M 60.234375 9.859375 C 60.234375 9.121094 59.636719 8.523438 58.898438 8.523438 C 58.160156 8.523438 57.5625 9.121094 57.5625 9.859375 L 57.5625 12.617188 C 57.5625 13.355469 58.160156 13.953125 58.898438 13.953125 C 59.636719 13.953125 60.234375 13.355469 60.234375 12.617188 Z M 60.234375 9.859375 "/>
</svg>

<svg role="img" viewBox="0 0 62.118 32" xmlns="http://www.w3.org/2000/svg"><path d="M17.125 21.055h2.676v10.441h-2.676Zm23.895 3.008c-.083-.086-.918-.586-2.254-.586-1.672 0-2.926 1.168-2.926 2.757 0 1.586 1.172 2.754 2.926 2.754 1.25 0 2.086-.5 2.254-.582v2.84c-.333.082-1.254.332-2.422.332-3.008 0-5.598-2.004-5.598-5.43 0-3.09 2.34-5.43 5.598-5.43 1.254 0 2.172.337 2.422.337Zm-27.57 0c-.083-.086-.919-.586-2.255-.586-1.672 0-2.925 1.168-2.925 2.757 0 1.586 1.171 2.754 2.925 2.754 1.254 0 2.09-.5 2.254-.582v2.84c-.332.082-1.25.332-2.422.332-2.922 0-5.597-2.004-5.597-5.43 0-3.09 2.34-5.43 5.597-5.43 1.254 0 2.172.337 2.422.337Zm41.355 2.253c0 3.008-2.34 5.43-5.516 5.43-3.172 0-5.512-2.422-5.512-5.43s2.34-5.43 5.512-5.43c3.262 0 5.516 2.423 5.516 5.43m-5.516-2.757c-1.586 0-2.754 1.253-2.754 2.757s1.168 2.758 2.754 2.758c1.59 0 2.758-1.254 2.758-2.758 0-1.503-1.168-2.757-2.758-2.757m-19.547-.082s-1.172-.336-2.09-.336c-1.086 0-1.672.336-1.672.836 0 .668.754.835 1.172 1.003l.75.25c1.672.586 2.508 1.754 2.508 3.008 0 2.59-2.34 3.508-4.344 3.508-1.421 0-2.757-.25-2.84-.25v-2.422c.25.082 1.337.418 2.504.418 1.336 0 1.922-.418 1.922-1.004 0-.5-.5-.836-1.168-1.004-.168-.082-.418-.164-.586-.164-1.503-.504-2.671-1.34-2.671-3.093 0-1.922 1.503-3.258 3.925-3.258 1.254 0 2.504.336 2.59.336ZM2.672 9.859a1.32 1.32 0 0 0-.383-.953 1.32 1.32 0 0 0-.953-.383 1.3 1.3 0 0 0-.95.383A1.34 1.34 0 0 0 0 9.86v2.754a1.325 1.325 0 0 0 1.336 1.34c.355.004.7-.137.95-.387.253-.254.394-.593.386-.953Zm7.187-3.593a1.3 1.3 0 0 0-.386-.95 1.3 1.3 0 0 0-.95-.386c-.753 0-1.253.586-1.253 1.336v6.347c-.004.356.132.7.382.953.254.25.598.391.953.387a1.325 1.325 0 0 0 1.336-1.34V6.266Zm7.266-4.93c.004-.356-.137-.7-.387-.95A1.33 1.33 0 0 0 15.79 0a1.33 1.33 0 0 0-.95.387 1.33 1.33 0 0 0-.386.949v13.871c-.004.355.137.695.387.95.254.25.594.39.95.386a1.323 1.323 0 0 0 1.335-1.336Zm7.188 4.93a1.33 1.33 0 0 0-.387-.95 1.3 1.3 0 0 0-.95-.386c-.355 0-.699.136-.953.386-.25.25-.39.594-.386.95v6.347c-.004.356.136.7.386.953a1.363 1.363 0 0 0 1.903 0c.25-.254.39-.593.387-.953Zm7.183 3.593a1.34 1.34 0 0 0-.387-.953c-.25-.25-.593-.39-.949-.383-.355-.007-.7.133-.953.383-.25.254-.39.598-.383.953v2.754a1.325 1.325 0 0 0 1.336 1.34c.356.004.7-.137.953-.387.25-.254.39-.597.383-.953Zm7.184-3.593a1.335 1.335 0 1 0-2.672 0v6.351a1.335 1.335 0 1 0 2.672 0Zm7.187-4.93a1.341 1.341 0 0 0-2.676 0v13.871a1.336 1.336 0 0 0 1.336 1.285c.723 0 1.313-.566 1.34-1.285Zm7.184 4.93a1.335 1.335 0 1 0-2.672 0v6.351a1.335 1.335 0 1 0 2.672 0Zm7.183 3.593a1.335 1.335 0 1 0-2.672 0v2.758a1.335 1.335 0 1 0 2.672 0Zm0 0" fill="rgb(0%, 58.823532%, 83.92157%)"/></svg>
